actions/symbolic/location-symbolic.svg

<?xml version="1.0" encoding="UTF-8" standalone="no"?>
<svg
   xmlns:dc="http://purl.org/dc/elements/1.1/"
   xmlns:cc="http://creativecommons.org/ns#"
   xmlns:rdf="http://www.w3.org/1999/02/22-rdf-syntax-ns#"
   xmlns:svg="http://www.w3.org/2000/svg"
   xmlns="http://www.w3.org/2000/svg"
   xmlns:sodipodi="http://sodipodi.sourceforge.net/DTD/sodipodi-0.dtd"
   xmlns:inkscape="http://www.inkscape.org/namespaces/inkscape"
   viewBox="0 0 16 16"
   id="svg3313"
   version="1.1"
   inkscape:version="0.91 r13725"
   sodipodi:docname="location-symbolic.svg">
  <metadata
     id="metadata3321">
    <rdf:RDF>
      <cc:Work
         rdf:about="">
        <dc:format>image/svg+xml</dc:format>
        <dc:type
           rdf:resource="http://purl.org/dc/dcmitype/StillImage" />
      </cc:Work>
    </rdf:RDF>
  </metadata>
  <sodipodi:namedview
     pagecolor="#ffffff"
     bordercolor="#666666"
     borderopacity="1"
     objecttolerance="10"
     gridtolerance="10"
     guidetolerance="10"
     inkscape:pageopacity="0"
     inkscape:pageshadow="2"
     inkscape:window-width="640"
     inkscape:window-height="480"
     id="namedview3319"
     showgrid="false"
     inkscape:zoom="39.8125"
     inkscape:cx="5.0863422"
     inkscape:cy="8"
     inkscape:current-layer="svg3313" />
  <defs
     id="defs3051">
    <style
       type="text/css"
       id="current-color-scheme">
      .ColorScheme-Text {
        color:#bebebe;
      }
      </style>
  </defs>
  <path
     style="color:#bebebe;fill:currentColor;fill-opacity:1;stroke:none"
     class="ColorScheme-Text"
     d="M 5,3.5 5,5 10.25,5 c 1.259475,0 2.25,0.990525 2.25,2.25 0,1.259475 -0.990525,2.25 -2.25,2.25 L 9.5,9.5 9.5,8 5.75,10.25 9.5,12.5 9.5,11 10.25,11 C 12.313138,11.075698 14,9.314525 14,7.25 14,5.185475 12.314525,3.5 10.25,3.5 L 5,3.5 Z M 3.5,8.75 A 1.5,1.5 0 0 0 2,10.25 1.5,1.5 0 0 0 3.5,11.75 1.5,1.5 0 0 0 5,10.25 1.5,1.5 0 0 0 3.5,8.75 Z"
     id="path3317"
     inkscape:connector-curvature="0" />
</svg>

<svg xmlns="http://www.w3.org/2000/svg" viewBox="0 0 16 16">
  <path fill="#bebebe" d="M5 3.5V5h5.25c1.26 0 2.25.99 2.25 2.25s-.99 2.25-2.25 2.25H9.5V8l-3.75 2.25L9.5 12.5V11h.75c2.063.076 3.75-1.685 3.75-3.75a3.758 3.758 0 0 0-3.75-3.75zM3.5 8.75a1.5 1.5 0 0 0-1.5 1.5 1.5 1.5 0 0 0 1.5 1.5 1.5 1.5 0 0 0 1.5-1.5 1.5 1.5 0 0 0-1.5-1.5z"/>
</svg>
